X: 82
T:Little Liza Jane
% Nottingham Music Database
S:via PR
M:4/4
L:1/4
K:A
e2/3f2/3g2/3|:"A"ae e3/2e/2|\
f/2e/2c/2B/2 A e2/3f2/3g2/3|af ec|
"F#m"f3/2g/2 f e2/3f2/3g2/3|"A"ae ee|"D"f/2e/2c/2B/2 "A"A2|"A"c/2B/2A/2F/2 "E7"EF |"A"A3A::
"A"B/2cB/2 c3/2A/2|BA2A|"A"B/2cB/2 c/2B/2A|"F#m"F3E|"D"F/2A/2-A B3/2A/2|\
"A"B/2c/2-c B3/2A/2|"A"c/2B/2A/2F/2 "E7"EF|"A"A3A:|


